X:281
T:Paddy Murphy's Wife
Z: id:dc-reel-261
M:C
L:1/8
K:D Major
E|FDAD BDAD|G2=cG E=CAG|FDAD BDAD|Adce d2AG|!
FDAD BDAD|G2=cG E=CAG|FDAD BDAD|Adce d3|]!
e|fada fdag|eg=cd efge|fade fddc|d2AG FADe|!
fada fdag|eg=cd efge|afge eddc|d2AG FAD|]!

